X:3530
T:Langstern Pony, The
O:england
R:double jig
M:6/8
L:1/8
K:D
fed cAA|eAA cBA|fed cAA|BGG Bcd|
fed cAA|eAA efg|(3fga f gfe|dBG Bcd:|
cee dff|cee ecA|cee  (3ded c|dBG Bcd|
cee dff|cee efg|(3fga f gfe|dBG Bcd:|


